symbols/web/settings_accessibility/materialsymbolsrounded/settings_accessibility_wght100gradN25_24px.svg

<svg xmlns="http://www.w3.org/2000/svg" height="24" width="24"><path d="M12.025 3.8q-.65 0-1.112-.463-.463-.462-.463-1.112 0-.675.463-1.125.462-.45 1.112-.45.675 0 1.125.45.45.45.45 1.125 0 .65-.45 1.112-.45.463-1.125.463Zm-1.55 14.975q-.15 0-.237-.087-.088-.088-.088-.238V6.275q-1.475-.15-2.825-.337-1.35-.188-2.55-.463-.15-.025-.225-.138-.075-.112-.025-.262.05-.125.137-.2.088-.075.213-.025 1.8.425 3.538.6 1.737.175 3.612.175 1.9 0 3.638-.175 1.737-.175 3.512-.6.15-.05.238.025.087.075.137.2.05.175-.037.275-.088.1-.213.125-1.225.3-2.575.475t-2.8.325V18.45q0 .15-.1.238-.1.087-.225.087t-.225-.087q-.1-.088-.1-.238v-5.675h-2.5v5.675q0 .15-.1.238-.1.087-.2.087Zm-2.4 4.825q-.3 0-.5-.2t-.2-.475q0-.275.2-.487.2-.213.5-.213.275 0 .475.213.2.212.2.487t-.2.475q-.2.2-.475.2Zm3.95 0q-.275 0-.475-.2-.2-.2-.2-.475 0-.275.2-.487.2-.213.475-.213.275 0 .488.213.212.212.212.487t-.212.475q-.213.2-.488.2Zm3.975 0q-.3 0-.5-.2t-.2-.475q0-.275.2-.487.2-.213.5-.213.275 0 .475.213.2.212.2.487t-.2.475q-.2.2-.475.2Z"/></svg>

<svg xmlns="http://www.w3.org/2000/svg" height="24" width="24"><path d="M12.025 3.8Q11.375 3.8 10.913 3.337Q10.45 2.875 10.45 2.225Q10.45 1.55 10.913 1.1Q11.375 0.65 12.025 0.65Q12.7 0.65 13.15 1.1Q13.6 1.55 13.6 2.225Q13.6 2.875 13.15 3.337Q12.7 3.8 12.025 3.8ZM10.475 18.775Q10.325 18.775 10.238 18.688Q10.15 18.6 10.15 18.45V6.275Q8.675 6.125 7.325 5.938Q5.975 5.75 4.775 5.475Q4.625 5.45 4.55 5.337Q4.475 5.225 4.525 5.075Q4.575 4.95 4.662 4.875Q4.75 4.8 4.875 4.85Q6.675 5.275 8.413 5.45Q10.15 5.625 12.025 5.625Q13.925 5.625 15.663 5.45Q17.4 5.275 19.175 4.85Q19.325 4.8 19.413 4.875Q19.5 4.95 19.55 5.075Q19.6 5.25 19.513 5.35Q19.425 5.45 19.3 5.475Q18.075 5.775 16.725 5.95Q15.375 6.125 13.925 6.275V18.45Q13.925 18.6 13.825 18.688Q13.725 18.775 13.6 18.775Q13.475 18.775 13.375 18.688Q13.275 18.6 13.275 18.45V12.775H10.775V18.45Q10.775 18.6 10.675 18.688Q10.575 18.775 10.475 18.775ZM8.075 23.6Q7.775 23.6 7.575 23.4Q7.375 23.2 7.375 22.925Q7.375 22.65 7.575 22.438Q7.775 22.225 8.075 22.225Q8.35 22.225 8.55 22.438Q8.75 22.65 8.75 22.925Q8.75 23.2 8.55 23.4Q8.35 23.6 8.075 23.6ZM12.025 23.6Q11.75 23.6 11.55 23.4Q11.35 23.2 11.35 22.925Q11.35 22.65 11.55 22.438Q11.75 22.225 12.025 22.225Q12.3 22.225 12.513 22.438Q12.725 22.65 12.725 22.925Q12.725 23.2 12.513 23.4Q12.3 23.6 12.025 23.6ZM16 23.6Q15.7 23.6 15.5 23.4Q15.3 23.2 15.3 22.925Q15.3 22.65 15.5 22.438Q15.7 22.225 16 22.225Q16.275 22.225 16.475 22.438Q16.675 22.65 16.675 22.925Q16.675 23.2 16.475 23.4Q16.275 23.6 16 23.6Z"/></svg>
